X: 12378
T: Fancy Fair, The
R: hornpipe
M: 4/4
K: Gmajor
|:(3d^c=c|B>dc>A B>GA>F|(3GAG (3AGF G2 (3def|g>b (3agf (3gfe (3dcB|c>BA>B c>Ad>c|
(3Bcd (3cBA (3BAG (3AGF|G2 [b2b2] [b2b2] a>g|(3fag (3fed (3ge^c (3ABc|(3d^cd f>e d2:|
|:d>c|B>dg>a b>gd>B|A2 (3d/e/f/g/a (3d/e/f/g/a d>c|B>dg>a b>gd>B|G2 g2- g>de>f|
(3gag (3fed (3gag (3fed|(3gag (3fed d>cB>A|(3Bcd (3gfe (3ded (3cBA|1 G>B (3AGF G>d:|2 G>B (3AGF G2||

